packages/icons/src/lib/svgs/file.svg

<svg
        aria-hidden="true"
        data-testid="test-icon"
        fill="none"
        
        viewBox="0 0 24 24"
        
        xmlns="http://www.w3.org/2000/svg"
        
    >
        <title>file icon</title>
        <path
            fillRule="evenodd"
            clipRule="evenodd"
            d="M4.75905 2.77432C5.24506 2.27853 5.90423 2 6.59155 2H12.9014C13.1106 2 13.3112 2.08477 13.4591 2.23566L19.769 8.67244C19.9169 8.82333 20 9.02799 20 9.24138V19.3563C20 20.0575 19.727 20.7299 19.241 21.2257C18.7549 21.7215 18.0958 22 17.4085 22H6.59155C5.90423 22 5.24506 21.7215 4.75905 21.2257C4.27304 20.7299 4 20.0575 4 19.3563V4.64368C4 3.94253 4.27304 3.2701 4.75905 2.77432ZM6.59155 3.6092C6.3226 3.6092 6.06466 3.71819 5.87448 3.91219C5.68431 4.10619 5.57746 4.36932 5.57746 4.64368V19.3563C5.57746 19.6307 5.68431 19.8938 5.87448 20.0878C6.06466 20.2818 6.3226 20.3908 6.59155 20.3908H17.4085C17.6774 20.3908 17.9353 20.2818 18.1255 20.0878C18.3157 19.8938 18.4225 19.6307 18.4225 19.3563V9.57465L12.5747 3.6092H6.59155Z"
            fill="currentColor"
        />
        <path
            fillRule="evenodd"
            clipRule="evenodd"
            d="M12.9014 2C13.337 2 13.6901 2.36023 13.6901 2.8046V8.43678H19.2113C19.6469 8.43678 20 8.79701 20 9.24138C20 9.68575 19.6469 10.046 19.2113 10.046H12.9014C12.4658 10.046 12.1127 9.68575 12.1127 9.24138V2.8046C12.1127 2.36023 12.4658 2 12.9014 2Z"
            fill="currentColor"
        />
    </svg>

<svg aria-hidden="true" data-testid="test-icon" fill="currentColor" viewBox="0 0 24 24" xmlns="http://www.w3.org/2000/svg"><path fill-rule="evenodd" clip-rule="evenodd" d="M4.76 2.774A2.566 2.566 0 016.591 2h6.31c.209 0 .41.085.557.236l6.31 6.436c.148.151.231.356.231.57v10.114a2.67 2.67 0 01-.759 1.87 2.566 2.566 0 01-1.832.774H6.591a2.566 2.566 0 01-1.833-.774A2.67 2.67 0 014 19.356V4.644c0-.701.273-1.374.76-1.87zm1.832.835c-.27 0-.527.11-.718.303-.19.194-.297.457-.297.732v14.712c0 .275.107.538.297.732.19.194.449.303.718.303h10.817c.268 0 .526-.11.716-.303.19-.194.297-.457.297-.732V9.575l-5.847-5.966H6.592z"/><path fill-rule="evenodd" clip-rule="evenodd" d="M12.901 2c.436 0 .79.36.79.805v5.632h5.52c.436 0 .789.36.789.804a.797.797 0 01-.789.805h-6.31a.797.797 0 01-.788-.805V2.805c0-.445.353-.805.788-.805z"/></svg>
